X:16
T:Folly of Youth. JJo.016, The
B:J.Johnson Choice Collection Vol 8 1758
Z:vmp.Simon Wilson 2013 www.village-music-project.org.uk
Z:Dance added by John Chambers 2017
M:C|
L:1/8
%Q:1/2=100
K:A
|: e2cA f2dB | ceac BGFE | e2cA f2dB | gefg a2A2 :|
|: B2GE c2AF | dcBA GBeg | a2ec f2dB | ceEG A2A,2 :|
%%begintext align
%% Cast off two Cu. .| half figure
%% up to the top :| 1st Man
%% set to the 2d Wo. and turn :||.
%% 1st Wo. and 2d Man the same :||:
%% Cross over two Cu. .| Lead up to
%% the top and cast off :| hands 4
%% round at Bottom :||. Right hands
%% and Left at top :||:
%%endtext
